packages/brickdoc-design-icons/assets/edit/rte-h4.svg

<svg width="1em" height="1em" viewBox="0 0 24 24" fill="none" xmlns="http://www.w3.org/2000/svg">
<path d="M1 2V22H3.57771V13.0364H12.4223V22H15V2H12.4223V10.4314H3.57771V2H1Z" fill="#3E3E3E"/>
<path fill-rule="evenodd" clip-rule="evenodd" d="M21.95 13.182H20.2935L15.978 18.7464V20.414H20.118V22.25H21.95V20.414H23.222V18.798H21.95V13.182ZM20.118 18.798V15.8944L17.8768 18.798H20.118Z" fill="#3E3E3E"/>
</svg>

<svg  viewBox="0 0 24 24" width="1em" height="1em" fill="none" xmlns="http://www.w3.org/2000/svg"><path d="M1 2v20h2.578v-8.964h8.844V22H15V2h-2.578v8.431H3.578V2H1Z" fill="#34313c"/><path fill-rule="evenodd" clip-rule="evenodd" d="M21.95 13.182h-1.656l-4.316 5.564v1.668h4.14v1.836h1.832v-1.836h1.272v-1.616H21.95v-5.616Zm-1.832 5.616v-2.904l-2.241 2.904h2.241Z" fill="#34313c"/></svg>
